src/fileIcons/FileIconMp4/FileIconMp4_size_s.svg

<svg viewBox="0 0 21 28" xmlns="http://www.w3.org/2000/svg">
  <path
    d="M19.6 0H1.4C0.626801 0 0 0.626801 0 1.4V26.6C0 27.3732 0.626801 28 1.4 28H19.6C20.3732 28 21 27.3732 21 26.6V1.4C21 0.626801 20.3732 0 19.6 0Z"
  />
  <path d="M14 7H16.5V9H17.5V7H18V6H17.5V4.5H16.5V6H15L16 2H15L14 5.87V7Z" fill="#fff" />
  <path
    d="M5.5 4.38195C5.23462 4.14443 4.88418 4 4.5 4C4.24718 4 4.00897 4.06255 3.8 4.17301V4H3V9H4V5.5C4 5.22386 4.22386 5 4.5 5C4.77614 5 5 5.22386 5 5.5V9H6V5.5C6 5.22386 6.22386 5 6.5 5C6.77614 5 7 5.22386 7 5.5V9H8V5.41L7.99721 5.40771C7.94953 4.62226 7.29744 4 6.5 4C6.11582 4 5.76538 4.14443 5.5 4.38195Z"
    fill="#fff"
  />
  <path
    fill-rule="evenodd"
    clip-rule="evenodd"
    d="M9.8 4.24V4H9V11H10.01V9H11.3C11.88 9 12.3067 8.87333 12.58 8.62C12.86 8.36667 13 7.96 13 7.4V5.6C13 5.03333 12.8633 4.62667 12.59 4.38C12.3167 4.12667 11.8867 4 11.3 4H10.6C10.2733 4 10.0067 4.08 9.8 4.24ZM10.16 5.18C10.2667 5.06 10.43 5 10.65 5H11.25C11.4967 5 11.6833 5.05667 11.81 5.17C11.9367 5.28333 12 5.44333 12 5.65V7.35C12 7.55667 11.9367 7.71667 11.81 7.83C11.6833 7.94333 11.4967 8 11.25 8H10.01L10 5.55C10 5.41667 10.0533 5.29333 10.16 5.18Z"
    fill="#fff"
  />
  <path
    opacity="0.6"
    fill-rule="evenodd"
    clip-rule="evenodd"
    d="M17 12V25H4V12H17ZM14 24H16V22H14V24ZM14 21H16V19H14V21ZM13 19V24.0556H8V19H13ZM13 18H8V12.9444H13V18ZM14 18H16V16H14V18ZM14 15H16V13H14V15ZM7 16V18H5V16H7ZM5 21V19H7V21H5ZM5 22V24H7V22H5ZM7 15V13H5V15H7Z"
    fill="#fff"
  />
</svg>

<svg viewBox="0 0 21 28" xmlns="http://www.w3.org/2000/svg">
  <path
    d="M19.6 0H1.4A1.4 1.4 0 000 1.4v25.2A1.4 1.4 0 001.4 28h18.2a1.4 1.4 0 001.4-1.4V1.4A1.4 1.4 0 0019.6 0z"
  />
  <path
    fill="#fff"
    d="M14 7h2.5v2h1V7h.5V6h-.5V4.5h-1V6H15l1-4h-1l-1 3.87V7zM5.5 4.382a1.494 1.494 0 00-1.7-.209V4H3v5h1V5.5a.5.5 0 011 0V9h1V5.5a.5.5 0 011 0V9h1V5.41l-.003-.002A1.5 1.5 0 005.5 4.382z"
  />
  <path
    fill="#fff"
    fill-rule="evenodd"
    d="M9.8 4.24V4H9v7h1.01V9h1.29c.58 0 1.007-.127 1.28-.38.28-.253.42-.66.42-1.22V5.6c0-.567-.137-.973-.41-1.22-.273-.253-.703-.38-1.29-.38h-.7c-.327 0-.593.08-.8.24zm.36.94c.107-.12.27-.18.49-.18h.6c.247 0 .433.057.56.17.127.113.19.273.19.48v1.7c0 .207-.063.367-.19.48-.127.113-.313.17-.56.17h-1.24L10 5.55a.53.53 0 01.16-.37z"
    clip-rule="evenodd"
  />
  <path
    fill="#fff"
    fill-rule="evenodd"
    d="M17 12v13H4V12h13zm-3 12h2v-2h-2v2zm0-3h2v-2h-2v2zm-1-2v5.056H8V19h5zm0-1H8v-5.056h5V18zm1 0h2v-2h-2v2zm0-3h2v-2h-2v2zm-7 1v2H5v-2h2zm-2 5v-2h2v2H5zm0 1v2h2v-2H5zm2-7v-2H5v2h2z"
    clip-rule="evenodd"
    opacity=".7"
  />
</svg>
